src/assets/img/Login/icons/quoteicon.svg

<svg width="60" height="60" viewBox="0 0 60 60" fill="none" xmlns="http://www.w3.org/2000/svg">
<g id="Icon">
<path id="Text" d="M6.77687 28.5883L6.77592 28.5911C5.59449 32.0841 5 35.4598 5 38.7158V47.8238C5 49.2045 6.11929 50.3238 7.5 50.3238H18.7689C20.1496 50.3238 21.2689 49.2045 21.2689 47.8238L21.2689 38.6069L21.2688 38.6027C21.234 34.4487 21.8963 30.6661 23.248 27.2484C24.4095 24.3556 25.7997 21.5615 27.4188 18.8658C28.1138 17.7087 27.8097 16.1863 26.6692 15.4264L20.6426 11.4104C19.7274 10.8006 18.4979 10.8491 17.6647 11.6089C15.4937 13.5883 13.5097 15.9257 11.7113 18.6179L11.7106 18.6189C9.63729 21.7397 7.9925 25.0631 6.77687 28.5883ZM33.6564 28.5883L33.6555 28.5911C32.4741 32.0841 31.8796 35.4598 31.8796 38.7158V47.8238C31.8796 49.2045 32.9989 50.3238 34.3796 50.3238H45.6484C47.0291 50.3238 48.1484 49.2045 48.1484 47.8238L48.1484 38.6069L48.1484 38.6027C48.1135 34.4489 48.7758 30.6664 50.1274 27.2488C51.289 24.3559 52.6792 21.5616 54.2984 18.8658C54.9933 17.7087 54.6893 16.1863 53.5488 15.4264L47.5221 11.4104C46.6069 10.8006 45.3775 10.8491 44.5442 11.6089C42.3733 13.5883 40.3893 15.9257 38.5909 18.6179L38.5902 18.6189C36.5169 21.7397 34.8721 25.0631 33.6564 28.5883Z" fill="url(#paint0_linear_116_11774)" stroke="#CAFF33"/>
</g>
<defs>
<linearGradient id="paint0_linear_116_11774" x1="30.2059" y1="11.0002" x2="30.2059" y2="49.8238" gradientUnits="userSpaceOnUse">
<stop stop-color="#CAFF33"/>
<stop offset="1" stop-color="#191919"/>
</linearGradient>
</defs>
</svg>

<svg xmlns="http://www.w3.org/2000/svg" width="60" height="60" fill="none"><path fill="url(#a)" stroke="#CAFF33" d="m6.777 28.588-.001.003C5.594 32.084 5 35.46 5 38.716v9.108a2.5 2.5 0 0 0 2.5 2.5h11.269a2.5 2.5 0 0 0 2.5-2.5v-9.221c-.035-4.154.627-7.937 1.979-11.355a58.83 58.83 0 0 1 4.17-8.382c.696-1.157.392-2.68-.749-3.44l-6.026-4.016c-.916-.61-2.145-.56-2.978.199-2.171 1.98-4.155 4.317-5.954 7.009a43.68 43.68 0 0 0-4.934 9.97Zm26.88 0-.001.003c-1.182 3.493-1.776 6.869-1.776 10.125v9.108a2.5 2.5 0 0 0 2.5 2.5h11.268a2.5 2.5 0 0 0 2.5-2.5v-9.221c-.035-4.154.628-7.937 1.98-11.354a58.836 58.836 0 0 1 4.17-8.383c.695-1.157.391-2.68-.75-3.44l-6.026-4.016c-.915-.61-2.145-.56-2.978.199-2.17 1.98-4.155 4.317-5.953 7.009a43.684 43.684 0 0 0-4.935 9.97Z"/><defs><linearGradient id="a" x1="30.206" x2="30.206" y1="11" y2="49.824" gradientUnits="userSpaceOnUse"><stop stop-color="#CAFF33"/><stop offset="1" stop-color="#191919"/></linearGradient></defs></svg>
